X:1
T:Mazurka in D-Chopin Op33,No2
L:1/8
K:D
Q:1/4=230
R:PIANO ACOMP. SOLO REHEARSAL 85RS
M:3/4
| z4 A2 | "D"Acde fg | "A7"f/2f3/2 ed cB | "D"A3/2d/2 de/2d/2 cB |
| "A7"c4 A2 | "D"Acde fg | "G6"f/2g/2f ed cB | "A7"Ac cd/2c/2 BA |
| "D"d4 A2 | "D"Acde fg | "A7"f/2f3/2 ed cB | "D"Ad de/2d/2 cB |
| "A7"c4 A2 | "D"Acde fg | "G6"f/2g/2f ed cB | "A7"Ac c/2d/2c BA |
| "D"d6 | "A"E^GAB cd | "E7"c/2d/2c BA ^GF | "A"EA AB/2A/2 ^GF |
| "E7"^G6 | "A"E^GAB cd | "Bm"c/2d/2c BA ^GF | "E7"E^G ^GA/2^G/2 FE |
| "A"A4 "A7"A2 | "D"Acde fg | "A7"f/2g/2f ed cB | "D"Ad de/2d/2 cB |
| "A7"c4 A2 | "D"Acde fg | "G6"f/2g/2f ed cB | "A7"A3/2c/2 cd/2c/2 BA |
| "D"d6 | "D" z8 | z8 |

